icons-dark/mimetypes/16/text-x-c++src.svg

<?xml version="1.0" encoding="UTF-8" standalone="no"?>

<!-- Created with Inkscape (http://www.inkscape.org/) -->
<svg width="16" version="1.1" xmlns="http://www.w3.org/2000/svg" height="16" viewBox="0 0 16 16" xmlns:inkscape="http://www.inkscape.org/namespaces/inkscape">
 <defs id="defs4"/>
 <metadata id="metadata7"/>
 <path inkscape:label="Capa 1" inkscape:groupmode="layer" style="fill:#04896a" id="rect4139" d="M 8 2 L 8 3 L 7 3 L 7 4 L 8 4 L 8 5 L 9 5 L 9 4 L 10 4 L 10 3 L 9 3 L 9 2 L 8 2 z M 12 2 L 12 3 L 11 3 L 11 4 L 12 4 L 12 5 L 13 5 L 13 4 L 14 4 L 14 3 L 13 3 L 13 2 L 12 2 z M 3 7 C 2.4459904 7 2 7.4459904 2 8 L 2 13 C 2 13.55401 2.4459904 14 3 14 L 8 14 C 8.5540096 14 9 13.55401 9 13 L 9 12.333984 L 8 12 C 8 12.554011 7.5540111 13 7 13 L 4 13 C 3.4459889 13 3 12.554011 3 12 L 3 9 C 3 8.4459889 3.4459889 8 4 8 L 7 8 C 7.5540111 8 8 8.4459889 8 9 L 9 8.6660156 L 9 8 C 9 7.4459904 8.5540096 7 8 7 L 3 7 z "/>
</svg>

<svg width="16" xmlns="http://www.w3.org/2000/svg" height="16" viewBox="0 0 16 16">
 <path fill="#1d70f7" d="m8 2v1h-1v1h1v1h1v-1h1v-1h-1v-1zm4 0v1h-1v1h1v1h1v-1h1v-1h-1v-1zm-9 5c-.554 0-1 .446-1 1v5c0 .554.446 1 1 1h5c.554 0 1-.446 1-1v-.666l-1-.334c0 .554-.446 1-1 1h-3c-.554 0-1-.446-1-1v-3c0-.554.446-1 1-1h3c.554 0 1 .446 1 1l1-.334v-.666c0-.554-.446-1-1-1z"/>
</svg>
